svgs/solid/snake.svg

<svg xmlns="http://www.w3.org/2000/svg" viewBox="0 0 640 512"><!-- Font Awesome Pro 6.0.0-alpha2 by @fontawesome - https://fontawesome.com License - https://fontawesome.com/license (Commercial License) --><path d="M617.375 180.119L530.75 153.496C497.375 143.248 464.125 161.746 452.5 191.994H448C377.25 191.994 320 249.238 320 319.984V383.979C320 401.602 305.625 415.977 288 415.977S256 401.602 256 383.979V133.748C256 66.879 207.25 7.133 140.75 0.633C64.5 -6.867 0 53.254 0 127.998V319.484C0 381.729 11.125 443.35 33 501.594C38.25 515.469 57.75 515.469 63 501.594C84.875 443.35 96 381.729 96 319.484V127.998C96 110.375 110.375 96 128 96S160 110.375 160 127.998V378.229C160 445.1 208.75 504.844 275.25 511.344C351.5 518.844 416 458.723 416 383.979V319.984C416 302.359 430.375 287.986 448 287.986H452.25C463.25 318.609 496.625 337.607 530.125 327.732L617.125 301.984C630.625 297.984 640 285.486 640 271.236V210.617C640 196.617 630.875 184.244 617.375 180.119ZM528 287.986C519.125 287.986 512 280.861 512 271.986C512 263.113 519.125 255.988 528 255.988S544 263.113 544 271.986C544 280.861 536.875 287.986 528 287.986ZM528 223.99C519.125 223.99 512 216.867 512 207.992S519.125 191.994 528 191.994S544 199.117 544 207.992S536.875 223.99 528 223.99Z"/></svg>

<svg xmlns="http://www.w3.org/2000/svg" viewBox="0 0 640 512"><!-- Font Awesome Pro 5.15.1 by @fontawesome - https://fontawesome.com License - https://fontawesome.com/license (Commercial License) --><path d="M617.4 180.09l-86.59-26.63c-33.39-10.27-66.71 8.26-78.25 38.54H448c-70.69 0-128 57.31-128 128v64c0 17.64-14.36 32-32 32s-32-14.36-32-32V133.7C256 66.89 207.29 7.11 140.79.63 64.49-6.82 0 53.2 0 128v191.53c0 62.18 11.18 123.86 33.02 182.09 5.19 13.84 24.77 13.84 29.96 0A518.514 518.514 0 0 0 96 319.53V128c0-17.64 14.36-32 32-32s32 14.36 32 32v250.3c0 66.81 48.71 126.59 115.21 133.08C351.51 518.82 416 458.8 416 384v-64c0-17.67 14.33-32 32-32h4.2c11.1 30.62 44.38 49.63 77.96 39.69l86.92-25.72c13.59-4.02 22.92-16.51 22.92-30.68v-60.61c0-14.05-9.17-26.46-22.6-30.59zM528 288c-8.84 0-16-7.16-16-16s7.16-16 16-16 16 7.16 16 16-7.16 16-16 16zm0-64c-8.84 0-16-7.16-16-16s7.16-16 16-16 16 7.16 16 16-7.16 16-16 16z"/></svg>
